X:1
T:Etude op. 21 no 24
T:Joachim Andersen
L:1/8
Q:1/4=144
M:4/4
K:F
V:1 treble nm="Flûte" snm="Fl."
V:1
"^Allegro con fuoco"!f!"_risoluto" !>!d4 (^c/e/a/g/ f/e/d/c/) | %1
 (d/A/F/D/ F/A/d/e/) (f/d/A/F/ A/d/f/g/) | (a/f/e/d/) (!>!b/f/e/d/) (!>!^g/f/e/d/) (!>!a/e/d/^c/) | %3
 (!>!^f/_e/d/=c/) (!>!g/b/d'/c'/ b/c'/b/a/ g/=f/=e/d/ | !>!^c4) (d/f/b/a/ g/f/e/d/ | %5
 ^c/)(B/G/E/ G/B/c/e/ d/e/f/e/ d/e/d/=c/ | B/)(g/d/c/ !>!B/)(^f/d/c/ B/)(g/d/c/ !>!B/)(_a/g/a/) | %7
 !>!.A/(=a/^g/a/) !>!.G/(c'/=b/c'/) !>!.^F/(_b/a/b/) !>!.c/(a/g/a/) | %8
!f!{/B} !>!g4 (^f/a/d'/c'/ b/a/g/f/) | (g/d/B/G/ B/d/g/a/) (b/g/d/B/ d/g/b/c'/) | %10
 (d'/b/a/g/) (!>!_e'/b/a/g/) (!>!^c'/b/a/g/) (!>!d'/a/g/^f/) | %11
 (!>!=b/_a/g/f/) (!>!c'/d'/_e'/d'/ c'/d'/c'/_b/ =a/b/a/g/ | !>!^f4) (g/b/_e'/d'/ c'/b/a/g/ | %13
 ^f/)(_e/c/A/ c/e/f/a/ g/a/b/a/ g/=f/=e/d/ | %14
 ^c/)(b/c'/b/) !>!.d/(a/b/a/) !>!.G/(g/a/g/) !>!.^G/(f/=g/f/) | %15
 !>!.A/(f/g/f/) !>!.B/(f/g/f/) !>!.G/(e/f/e/) !>!.A/(^c/^B/c/) | d4 z!f!"_appassionato" (aef | %17
 ^cd^GA EF^CD | A{/=c}B A2) (3z !>!.A!>!.=B (3!>!.^c!>!.d!>!.e | %19
 !>!.f!>!D"^" (!>!a4{/c'} !turn!b>).a | (!>!a2 g2) z (b^fg | ^deAB ^FG (3^DE=D) | %22
 (D>^C) e'2- (3e'!>!.d'!>!.^c' (3!>!.b!>!.a!>!.^g | .a(A B2- (3B).A.=G (3(G{AG}FE | %24
 G^F =F2) z/!p!"_amoroso" (D/F/B/ d/f/b/_e'/ | d'>c' g2) (3z!mf!!<(! .f.^f (3.g.^g.a | %26
 (3(c'bd!<)!!>(! a2- (3a).g.f (3._e.d.c!>)! |!p!!<(! (3(BA).c (_e/f/a/c'/ (3_e')!<)!!p!(de a>g) | %28
 (g/f/d/B/ F2) z/!<(! (D/F/B/ d/f/b/_e'/!<)! |!mf! d'^c' f'2- (3f')!>(!(=e'c' (3bag!>)! | %30
!<(! (3f)(g^g (3a).f.e!<)!!>(! (3.d._d.c (3.=B._B.A!>)! | .^G z!mf! (f'4{g'f'} e'>d' | %32
 ^c'2) z2 (3z!p!"_dolce" .e'.d' (3.c'.=b.a | ^g2!mf! !>!f'2- f'/(d'/=b/g/ f/d/=B/^G/ | %34
 (3A).^c.e (3.a.^c'.^f'!p! (3.e'"_dolce".^d'.=d' (3.c'.=b.a | %35
!<(! (3(=c'a_b!<)!!mf! f'/d'/=b/^g/ f/d/=B/^G/!>(! (3F{GF}ED!>)! | %36
!p! ^C>E A2) (^c/e/a/g/ f/e/d/c/) | (d/B/F/D/ F/B/d/e/)"_cresc." (f/d/B/F/ B/d/f/b/) | %38
 (^D^F A2) (^d/^f/=b/a/ g/f/e/d/) | (e/=B/G/E/ G/B/e/^f/) (g/e/B/G/ B/e/g/=b/) | %40
!mf! .A(^e/^g/"_cresc." ^c'/=b/a/g/) .A(^f/a/ d'/c'/b/a/) | %41
!<(! .A(^f/a/ ^d'/=c'/=b/a/) .A(g/a/ e'/^c'/b/a/)!<)! | z!f! g'(!>!^d'e') (!>!^b^c')(!>!^fg) | %43
 (!>!^de)(!>!^B^c) (3(!>!^G=BA (3GA=G |[K:D] F4) z"_grandioso" (a'^e'f' | c'd'^ga (3^efd (3AGF | %46
 E) z g'2- (3g'.f'.=f' (3.e'.^d'.=d' | (3.c'.=c'.b (3._b.a.^g (3.a(ga (3:2:4^a=b)z/.=g/ | %48
 (^e2 f2) (3z .a.^a (3.b.^b.c' | (3(e'd'=b) a2- (3a.b.c' (3.d'.e'.^e' | %50
 (3.f'(^e'f' a'2- (3a').g'.^d' (3.f'.=e'.=d' | (3(Pc'^bc' (3e'd'=b (3a)(^ga (3^ab=g | %52
!>(! f4- (3f).g.=a!>)! (3.b.c'.d' | e2 (b4{c'b} a>g | f2- (3f)!<(!.g.^g (3.a.b.c' (3.d'.e'.f'!<)! | %55
 .g'(E!p! b4{c'b} a>g | f4)!p! (=f/"_leggiero"_b/d'/=c'/ b/a/g/f/ | %57
 e/d/=B/^G/ B/d/"_cresc."e/^g/) (b/a/=g/e/ c/A/G/=G/ | %58
 F/A/d/e/ ^e/f/g/f/)!mf! (=f/_b/d'/=c'/ b/a/g/f/ | %59
 e/)(d'/=b/^g/ e/d/B/^G/ =G/)(A/"_cresc."c/e/ =g/^g/a/^a/ | %60
!f! b/=a/f/d/) (c/e/g/^g/ b/a/f/d/) (=c'/b/a/f/) | %61
 (=c'/b/=g/e/) (^d/f/a/b/ c'/b/g/e/) (e'/d'/c'/a/) | %62
 (e'/d'/b/g/)"_cresc." (e'/d'/a/f/) (e'/d'/b/g/) (e'/d'/=c'/a/) | %63
 (e'/d'/b/d'/)!ff! (=f'/d'/b/^g/ =f/d/B/d/ f/g/b/d'/ | %64
 a/)!ff!(a'/g'/^f'/ e'/f'/e'/d'/ c'/d'/c'/b/ a/^g/a/^a/) | %65
 (b/=a/=g/f/ e/d/c/B/ A/^G/A/^A/ B/A/B/c/ | d4) (c/e/a/g/ f/e/d/c/) | %67
 (d/A/F/E/ D/F/A/d/) (f/d/A/G/ F/A/d/e/ | f4) (g/b/e'/d'/ c'/b/a/g/ | %69
 f/)(d/A/G/ F/A/d/f/) (a/f/d/B/ A/d/f/a/) | (e'/d'/a/f/ e/d/A/F/ A/G/)(D/G/ B/d/g/b/) | %71
 (e'/d'/a/f/ e/d/A/F/ A/G/)(D/G/ B/d/g/b/ | e'/d'/a/f/) (b/a/f/d/) (g/f/d/A/) (e/d/A/F/) | %73
 (B/A/F/D/) (F/A/d/f/) (A/d/f/a/) (d/f/a/d'/ | f'2) z2 d'2 z2 | D2 z2 f'2 z z/ d/ | (d8{efgabc'} | %77
 d'2) z2 z4 |] %78

